X: 23557
T: Light And Airy
R: jig
M: 6/8
K: Dmajor
FG|A3 FAF|DFA dAF|A3 FAF|E2 F G2 B|
A3 FAF|DFA dAF|GeG FdF|E2 F G2 B||
ded dAF|ded f2 e|ded dAF|E2 F G2 B|
dfd ege|dfd cec|dcB AGF|E2 F G2 B||
AFD D3|AFD FAd|AFD D3|E2 F G2 B|
AFD D3|dcB AGF|GeG FdF|E2 F G2 B||
ded dAF|ded f2 e|ded dAF|E2 F G2 B|
dfd ege|dfd cec|dcB AGF|E2 F G2 B||

